packages/ui-icons/svg/Solid/educators.svg

<svg viewBox="0 0 1920 1920" version="1.1" xmlns="http://www.w3.org/2000/svg">
    <path d="M640.376471,734.117647 C762.352941,734.117647 762.352941,847.058824 885.458824,847.058824 C944.396047,847.058824 974.820774,820.557944 1004.36389,793.262914 L1006.37715,791.40096 C1009.73139,788.296659 1013.08235,785.189647 1016.47059,782.117647 L1016.47059,847.058824 C1016.47059,1002.80471 889.863529,1129.41176 734.117647,1129.41176 C578.371765,1129.41176 451.764706,1002.80471 451.764706,847.058824 L451.764706,835.764706 C477.255529,825.401224 496.005075,808.791236 514.580831,791.975917 L517.59263,789.248263 C548.218187,761.518216 579.336282,734.117647 640.376471,734.117647 Z M1920,-0.0112941176 L1920,1129.40047 L1581.17647,1129.40047 L1581.17647,1016.45929 L1807.05882,1016.45929 L1807.05882,112.929882 L112.941176,112.929882 L112.941176,1016.45929 L225.882353,1016.45929 L225.882353,1129.40047 L0,1129.40047 L0,-0.0112941176 L1920,-0.0112941176 Z M1471.84941,714.24 L1115.52,1663.17176 C941.251765,1673.56235 666.578824,1681.12941 484.517647,1615.05882 L522.917647,1508.89412 C653.251765,1556.32941 860.724706,1562.76706 1052.72471,1550.56941 L1185.31765,1195.93412 L1124.89412,1180.12235 C1078.13647,1167.92471 1031.04,1158.77647 983.717647,1150.98353 C1071.92471,1078.47529 1129.41176,969.938824 1129.41176,847.058824 L1129.41176,734.117647 C1129.41176,516.141176 952.094118,338.823529 734.117647,338.823529 C516.141176,338.823529 338.823529,516.141176 338.823529,734.117647 L338.823529,847.058824 C338.823529,969.712941 396.197647,1078.13647 484.065882,1150.64471 C428.047059,1160.01882 372.592941,1171.53882 318.042353,1187.12471 C197.308235,1221.45882 112.941176,1333.49647 112.941176,1459.2 L112.941176,1788.31059 L147.84,1802.76706 C332.272941,1879.45412 535.115294,1920 734.117647,1920 C914.371765,1920 1082.76706,1904.07529 1208.24471,1875.27529 C1258.61647,1863.86824 1299.16235,1828.29176 1316.89412,1780.17882 L1348.74353,1692.87529 C1363.08706,1653.68471 1356.31059,1610.88 1330.33412,1578.35294 C1317.34588,1561.86353 1300.51765,1549.44 1281.76941,1541.87294 L1577.56235,753.995294 L1471.84941,714.24 Z" stroke="none" stroke-width="1" fill-rule="evenodd"/>
</svg>

<svg viewBox="0 0 1920 1920" xmlns="http://www.w3.org/2000/svg">
    <path d="M640.376 734.118c121.977 0 121.977 112.94 245.083 112.94 58.937 0 89.362-26.5 118.905-53.795l2.013-1.862c3.354-3.104 6.705-6.211 10.094-9.283v64.94c0 155.747-126.607 282.354-282.353 282.354s-282.353-126.607-282.353-282.353v-11.294c25.49-10.364 44.24-26.974 62.816-43.79l3.012-2.727c30.625-27.73 61.743-55.13 122.783-55.13ZM1920-.012V1129.4h-338.824v-112.94h225.883V112.93H112.94v903.53h112.941v112.94H0V-.01h1920ZM1471.85 714.24l-356.33 948.932c-174.268 10.39-448.941 17.957-631.002-48.113l38.4-106.165c130.334 47.435 337.807 53.873 529.807 41.675l132.593-354.635-60.424-15.812c-46.758-12.197-93.854-21.346-141.176-29.138 88.207-72.509 145.694-181.045 145.694-303.925V734.118c0-217.977-177.318-395.294-395.294-395.294-217.977 0-395.294 177.317-395.294 395.294v112.94c0 122.655 57.374 231.078 145.242 303.587-56.019 9.374-111.473 20.894-166.024 36.48-120.734 34.334-205.1 146.371-205.1 272.075v329.11l34.898 14.457C332.273 1879.454 535.115 1920 734.118 1920c180.254 0 348.65-15.925 474.127-44.725 50.371-11.407 90.917-46.983 108.65-95.096l31.849-87.304c14.343-39.19 7.567-81.995-18.41-114.522-12.988-16.49-29.816-28.913-48.565-36.48l295.793-787.878-105.713-39.755Z" fill-rule="evenodd"/>
</svg>
